packages/icons/src/emoji/svg/briefcase.svg

<svg width="120" height="120" viewBox="0 0 120 120" fill="none" xmlns="http://www.w3.org/2000/svg">
<path d="M79.0309 28.472C79.0309 26.5782 78.5527 24.7688 77.6996 23.1001M42.2902 23.1001C41.4371 24.7595 40.959 26.5782 40.959 28.472" stroke="#BDBDBD" stroke-width="0.375" stroke-miterlimit="10"/>
<path d="M14.0996 31.8469H105.909C109.996 31.8469 113.315 35.1657 113.315 39.2532V101.184C113.315 105.272 109.996 108.591 105.909 108.591H14.0996C10.0121 108.591 6.69336 105.272 6.69336 101.184V39.2532C6.69336 35.1657 10.0027 31.8469 14.0996 31.8469Z" fill="#795548"/>
<path d="M107.212 36.45H12.7871C9.42148 36.45 6.69336 39.0468 6.69336 42.2531V65.4375C6.69336 66.3562 7.18086 67.2 7.97773 67.7156C19.8184 75.3656 40.059 79.5281 59.9996 79.9124C79.9402 79.5281 100.181 75.3656 112.021 67.7156C112.818 67.2 113.306 66.3562 113.306 65.4375V42.2437C113.306 39.0468 110.578 36.45 107.212 36.45Z" fill="#5D4037"/>
<path d="M108.76 28.4719H11.2408C7.7627 28.4719 4.9502 31.2844 4.9502 34.7625V59.9063C4.9502 60.9 5.45645 61.8188 6.27207 62.3719C18.5064 70.6594 39.4127 75.1782 60.0002 75.5907C80.5877 75.1782 101.494 70.6594 113.728 62.3719C114.553 61.8188 115.05 60.9 115.05 59.9063V34.7625C115.05 31.2844 112.228 28.4719 108.76 28.4719Z" fill="#795548"/>
<path d="M67.7902 70.0969V84.8063C67.7902 85.6407 67.1152 86.3063 66.2902 86.3063H53.709C52.8746 86.3063 52.209 85.6313 52.209 84.8063V70.0969C52.209 69.2625 52.884 68.5969 53.709 68.5969H66.2902C67.1246 68.5969 67.7902 69.2719 67.7902 70.0969Z" fill="#757575"/>
<path d="M67.7902 66.8718V81.5812C67.7902 82.4156 67.1152 83.0812 66.2902 83.0812H53.709C52.8746 83.0812 52.209 82.4062 52.209 81.5812V66.8718C52.209 66.0374 52.884 65.3718 53.709 65.3718H66.2902C67.1246 65.3718 67.7902 66.0468 67.7902 66.8718Z" fill="#BDBDBD"/>
<path d="M69.6652 69.7781V71.5875C69.6652 72.4218 68.9902 73.0874 68.1652 73.0874H51.834C50.9996 73.0874 50.334 72.4124 50.334 71.5875V69.7781C50.334 68.9437 51.009 68.2781 51.834 68.2781H68.1652C68.9996 68.2781 69.6652 68.9531 69.6652 69.7781Z" fill="#757575"/>
<path d="M77.7098 23.1C74.9254 17.6719 68.0535 13.8281 60.0004 13.8281C51.9473 13.8281 45.0754 17.6719 42.291 23.1" stroke="#795548" stroke-width="0.5625" stroke-miterlimit="10" stroke-linecap="round"/>
</svg>

<svg xmlns="http://www.w3.org/2000/svg" fill="none" aria-hidden="true" data-slot="icon" viewBox="0 0 120 120"><path stroke="#BDBDBD" stroke-miterlimit="10" stroke-width=".375" d="M79.03 28.472c0-1.894-.477-3.703-1.33-5.372m-35.41 0c-.853 1.66-1.331 3.478-1.331 5.372"/><path fill="#795548" d="M14.1 31.847h91.809a7.41 7.41 0 0 1 7.406 7.406v61.931a7.41 7.41 0 0 1-7.406 7.407h-91.81a7.41 7.41 0 0 1-7.406-7.407v-61.93a7.404 7.404 0 0 1 7.407-7.407"/><path fill="#5D4037" d="M107.212 36.45H12.787c-3.366 0-6.094 2.597-6.094 5.803v23.185c0 .918.488 1.762 1.285 2.278C19.818 75.366 40.059 79.528 60 79.912c19.94-.384 40.181-4.546 52.021-12.196.797-.516 1.285-1.36 1.285-2.278V42.244c0-3.197-2.728-5.794-6.094-5.794"/><path fill="#795548" d="M108.76 28.472H11.24a6.286 6.286 0 0 0-6.29 6.29v25.144c0 .994.506 1.913 1.322 2.466C18.506 70.659 39.412 75.178 60 75.59c20.588-.413 41.494-4.932 53.728-13.22a2.97 2.97 0 0 0 1.322-2.465V34.763a6.29 6.29 0 0 0-6.29-6.291"/><path fill="#757575" d="M67.79 70.097v14.71c0 .834-.675 1.5-1.5 1.5H53.71a1.5 1.5 0 0 1-1.5-1.5v-14.71c0-.834.675-1.5 1.5-1.5h12.58c.835 0 1.5.675 1.5 1.5"/><path fill="#BDBDBD" d="M67.79 66.872v14.71c0 .834-.675 1.5-1.5 1.5H53.71a1.5 1.5 0 0 1-1.5-1.5v-14.71c0-.835.675-1.5 1.5-1.5h12.58c.835 0 1.5.675 1.5 1.5"/><path fill="#757575" d="M69.665 69.778v1.81c0 .834-.675 1.5-1.5 1.5H51.834a1.5 1.5 0 0 1-1.5-1.5v-1.81c0-.834.675-1.5 1.5-1.5h16.331c.835 0 1.5.675 1.5 1.5"/><path stroke="#795548" stroke-linecap="round" stroke-miterlimit="10" stroke-width=".563" d="M77.71 23.1c-2.785-5.428-9.656-9.272-17.71-9.272S45.075 17.672 42.291 23.1"/></svg>
